X:1
T:Title
%%score { ( 1 3 ) | ( 2 4 ) }
L:1/8
Q:1/4=84
M:6/8
K:F
V:1 treble nm="Grand Piano"
V:3 treble 
V:2 bass 
V:4 bass 
V:1
 cAd cFB | A6 | [DB][EG]E CD[EB] | A6 | cAd cF[DFB] | [CFA]6 | [DFG][CFA][DFB] [CFA][A,F][B,EG] | %7
w: G.~Tabor~Thompson * * * * *|||||||
 [A,F]6 | .[Fc]6 | .c6 | .G6 | [FA]6 | .[Fc]6 | .c6 | [EG][Ed][Fd] [Ec][EB][EG] | F6 |] %16
w: |||||||||
V:2
 [F,A,F][F,CF][F,B,F] [F,A,F][F,A,][F,DF] | [F,CF]6 | [C,C][C,B,][C,G,C] [C,E,][C,F,C][C,G,] | %3
 [F,F]6 | [F,A,F][F,CF][F,B,F] [F,A,F][D,A,]B,, | F,6 | B,,A,,G,, C,C,C, | F,6 | %8
 [F,A,]F,F, F,[K:treble][F,CF]F | F-[F,F-][F,F-] [F,F][F,CF]F | .E6[K:bass] | [F,C]6 | %12
 [F,A,]F,F, F,[K:treble][F,CF]F | .F6 | [C,B,][C,B,][C,A,] [C,G,][C,C][C,B,] | [F,A,]6 |] %16
V:3
 x6 | x6 | x6 | x6 | x6 | x6 | x6 | x6 | z A,A, A,Ad | z A,A, A,Ad | z2 C C[FA][GB] | x6 | %12
 z A,A, A,Ad | z A,A, A,A[Fd] | x6 | x6 |] %16
V:4
 x6 | x6 | x6 | x6 | x6 | x6 | x6 | x6 | x4[K:treble] x2 | .[F,A,]3 z3 | %10
 z2[K:bass] C, C,[C,C][C,C] | x6 | x4[K:treble] x2 | [F,A,]F,F, F,[F,CF][B,,B,] | x6 | x6 |] %16

